X:1
T:Title
%%score { ( 1 4 ) | ( 2 3 ) }
L:1/8
M:6/8
K:G
V:1 treble nm="Grand Piano"
V:4 treble 
V:2 treble 
V:3 treble 
V:1
 z3 z2[Q:1/4=69] G | B>AG BAG | dcB d2 [EGc] | [DGB]>[DGB][DGB] [CFA]2 [CDA] | [B,DG]3- [B,DG]2 G | %5
 B>AG BAG | dcB d2 [Ge] | [Gd]>[Gd][Gd] [GB]GA | G6 | z3 d3 | z3 .d3 | e>ee dBG | %12
 [GB]3 [FA]2 [Ac] | B>AG BAG | [Gc][Gd][Ge] d2 B/c/ | d>dd [DGB]<[B,DG][CDA] | %16
[M:5/8] [B,DG]-[B,DG]- [B,DG]3 |] %17
V:2
 z3 z2 [G,B,D] | [G,DG]>[G,CD][G,B,D] [G,DG][G,CD][G,B,D] | %2
 [G,B,G][G,A,D][G,D] [G,B,G]2[K:bass] C, | D,>D,D, D,2 D, | G,,3- G,,2[K:treble] [G,B,D] | %5
 [G,DG]>[G,CD][G,B,D] [G,DG][G,CD][G,B,D] | [G,B,G][G,A,][G,D] [G,B,G]2[K:bass] [C,C] | %7
 [D,B,]>[D,B,][D,B,] D[B,D][D,CD] | [G,B,D]6 | [D,D]>[D,D][D,D] [D,A,][E,A,][F,D] | %10
 [G,DG]>[G,DG][G,DG] [G,B,G][A,C][B,DG] | [CG]>[CG][CG] [B,DG][G,DG][K:bass][E,^C] | %12
 [D,D]3 [D,D]2 [D,D] | [G,DG]>[G,CD][G,B,D] [G,DG][G,CD][K:bass][=F,B,D] | %14
 [E,C][D,B,][C,C][K:treble] [G,B,G]2 [G,DG]/[G,A,G]/ | [G,B,G]>[G,B,G][G,B,G][K:bass] D,<D,D, | %16
[M:5/8] G,,-G,,- G,,3 |] %17
V:3
 x6 | x6 | x5[K:bass] x | x6 | x5[K:treble] x | x6 | x5[K:bass] x | z3 .D,3 | x6 | x6 | x6 | %11
 x5[K:bass] x | x6 | x5[K:bass] x | x3[K:treble] x3 | x3[K:bass] x3 |[M:5/8] x5 |] %17
V:4
 x6 | x6 | x6 | x6 | x6 | x6 | x6 | x6 | x6 | [FA]>[FA][FA] FGA | B>BB z Fd | x6 | x6 | x6 | x6 | %15
 x6 |[M:5/8] x5 |] %17

